X: 33470
T: Radio Betty-Hill
R: jig
M: 6/8
K: Dmajor
|:EFA dBA|F2 E EDE|EFA dBA|ef d2 BA|
FEF dBA|F2 E EDE|FGG GFE|EF D2 ED:|
|:efd dBA|F2 E FAd|efd dBA|ad gd fd|
efd dBA|F2 E EDE|FGG GFE|EF D2 ED:|

